X:271
T:Polska efter Karl Stenström
T:(SvL Halland 271)
O:Eftra, Halland
R:Polska
S:Efter Karl Stenström
B:Svenska Låtar Halland
N:Polskan spelades av en dalmas, bosatt i Halmstad. Stenström trodde ej det var en Hallandspolska. (SvL)
N:SvL Halland 271
Z:ABC-transkribering av Jonas Brunskog
M:3/4
L:1/8
K:Dm
|:D>(F A)>(^c d)e|Tf2 e^c A2|Aa ga fg|ef de cA|
D>(F A)>(^c d)e|Tf2 e^c A2|Aa ga fg|ef d4:|
|:fa ef df|ef de A2|FA EA DF|^CA DF A2|
fa ef df|ef de A2|FA EA DF|^CA D4:|

